blockchains/binancesmartchain/logo.svg

<svg fill="none" height="260" viewBox="0 0 260 260" width="260" xmlns="http://www.w3.org/2000/svg"><path clip-rule="evenodd" d="m130 0c71.802 0 130 58.1979 130 130 0 71.802-58.198 130-130 130-71.8021 0-130-58.198-130-130 0-71.8021 58.1979-130 130-130z" fill="#000" fill-rule="evenodd"/><g fill="#f0b90b"><path d="m71.4499 130 .0937 34.375 29.2084 17.187v20.125l-46.3021-27.156v-54.583zm0-34.375v20.031l-17.0104-10.062v-20.0315l17.0104-10.0625 17.0937 10.0625zm41.5001-10.0625 17.01-10.0625 17.094 10.0625-17.094 10.0625z"/><path d="m83.7373 157.25v-20.125l17.0107 10.062v20.032zm29.2087 31.521 17.01 10.062 17.094-10.062v20.031l-17.094 10.063-17.01-10.063zm58.5-103.2085 17.01-10.0625 17.094 10.0625v20.0315l-17.094 10.062v-20.031zm17.01 78.8125.094-34.375 17.01-10.063v54.584l-46.302 27.156v-20.125z"/><path d="m176.261 157.25-17.01 9.969v-20.032l17.01-10.062z"/><path d="m176.258 102.75.094 20.125-29.292 17.188v34.458l-17.01 9.969-17.011-9.969v-34.458l-29.2913-17.188v-20.125l17.0833-10.0625 29.115 17.2705 29.291-17.2705 17.094 10.0625zm-92.5207-34.3646 46.2187-27.25 46.302 27.25-17.01 10.0625-29.292-17.2708-29.208 17.2708z"/></g></svg>

<svg width="260" height="260" viewBox="0 0 260 260" fill="none" xmlns="http://www.w3.org/2000/svg">
<path fill-rule="evenodd" clip-rule="evenodd" d="M130 0C201.802 0 260 58.1979 260 130C260 201.802 201.802 260 130 260C58.1979 260 0 201.802 0 130C0 58.1979 58.1979 0 130 0Z" fill="black"/>
<path d="M71.4499 130L71.5436 164.375L100.752 181.562V201.687L54.4499 174.531V119.948L71.4499 130ZM71.4499 95.625V115.656L54.4395 105.594V85.5625L71.4499 75.5L88.5436 85.5625L71.4499 95.625ZM112.95 85.5625L129.96 75.5L147.054 85.5625L129.96 95.625L112.95 85.5625Z" fill="#F0B90B"/>
<path d="M83.7373 157.25V137.125L100.748 147.187V167.219L83.7373 157.25ZM112.946 188.771L129.956 198.833L147.05 188.771V208.802L129.956 218.865L112.946 208.802V188.771ZM171.446 85.5625L188.456 75.5L205.55 85.5625V105.594L188.456 115.656V95.625L171.446 85.5625ZM188.456 164.375L188.55 130L205.56 119.937V174.521L159.258 201.677V181.552L188.456 164.375Z" fill="#F0B90B"/>
<path d="M176.261 157.25L159.251 167.219V147.187L176.261 137.125V157.25Z" fill="#F0B90B"/>
<path d="M176.258 102.75L176.352 122.875L147.06 140.063V174.521L130.05 184.49L113.039 174.521V140.063L83.7477 122.875V102.75L100.831 92.6875L129.946 109.958L159.237 92.6875L176.331 102.75H176.258ZM83.7373 68.3854L129.956 41.1354L176.258 68.3854L159.248 78.4479L129.956 61.1771L100.748 78.4479L83.7373 68.3854Z" fill="#F0B90B"/>
</svg>
